X:1
T:Sexagesima, 10.10.12
T:Hermann Rudolph Schroeder, 1887
T:Sexagesima, 10.10.12
T:Public Domain
C:Hermann Rudolph Schroeder, 1887
Z:Public Domain
%%score ( 1 2 ) ( 3 4 )
L:1/8
M:4/4
K:C
V:1 treble 
V:2 treble 
V:3 bass 
V:4 bass 
V:1
 [^CA]2 | [DF]2 (EC) x | [A,D]2 [G,G]2 | ([G,C]2 DE) | FG z F x | [DG]2 E2 | [DF]2 D2 | %7
 (DE) [FA]2 [F_B]2 [EG]2 | AG z D x | [^CE]2 [_B,D]2 | [G,C]2 [CF]2 x | (EF) (DE) x | [FA]2 [Fd]2 | %13
 [E_B]2 (AG) | (ED) (D^C) | [A,D]4 |] %16
V:2
 x2 | x2 E2 x | x4 | x2 C2 | C3 A2 | x2 E2 | x2 D2 | G2 x6 | E3 F2 | x4 | x5 | C2 G2 x | x4 | %13
 x2 E2 | F2 E2 | x4 |] %16
V:3
 [A,,A,]2 | A,2 z ^C, x | D,C, [B,,D,]2 | [C,E,]2 (F,G,) | ([A,,A,][G,,_B,]) [F,,C]2 x | %5
 [G,,_B,]2 [^C,A,]2 | (D,E,) [F,A,]2 | [G,_B,]2 (F,E,) [D,B,]2 (E,D,) | [^C,A,]2 [D,A,]2 x | %9
 [A,,A,]2 [_B,,F,]2 | E,2 z A,, x | C,2 z C x | [F,C]2 [D,F,]2 | [D,G,]2 [^C,A,]2 | %14
 [D,A,]2 [A,,G,]2 | [D,,F,]4 |] %16
V:4
 x2 | D,3 A,2 | F,2 x2 | x2 _B,,2 | x5 | x4 | A,2 x2 | x2 C2 x _B,2 x | x5 | x4 | _B,,3 F,2 | %11
 G,3 C,2 | x4 | x4 | x4 | x4 |] %16

